X: 578
T: Gan liu
%%abc-version 2.0
%%abcx-abcm2ps-target-version 5.9.1 (29 Sep 2008)
%%abc-creator hum2abc beta
%%abcx-conversion-date 2013/10/02 07:52:30
%%abc-edited-by Helmut Schaffrath
%%humdrum-veritas 1162683143
%%humdrum-veritas-data 2091667007
%%continueall 1
%%barnumbers 0
L: 1/8
M: 2/4
K: F
A cd2 [I:setbarnb 1]| 
f> f d c | 
d c A d | 
c4 | 
A cd2 | 
fc2A | 
c2A c | 
G4 | 
c2G2 | 
cG2A | 
c B c d | 
F4 | 
D FG2 | 
cF2D | 
C C D F | 
C4 | 
G3A | 
G4 | 
c> B c d | 
F4 | 
D FG2 | 
cF2D | 
C C D F | 
C4 |]  



